X:1
T:Vous avez tort
T:Vous avez tort
T:Thomas Crecquillon
C:Thomas Crecquillon
%%score [ 1 2 3 4 ]
L:1/8
Q:1/4=91
M:2/2
K:F
V:1 treble nm="Superius" snm="S"
V:2 treble nm="Altus" snm="A"
V:3 treble-8 nm="Tenor" snm="T"
V:4 bass nm="Bass" snm="B"
V:1
 G8 | G4 B4 | A8 | z2 A2 A2 A2 | B2 B2 cB AG | F2 B4 A2- | A2 G4 F2 | G2 G2 B4- | B2 B2 A4- | %9
w: Vous|a- vez|tort,|chas- cun vous|bla- me- ra, _ _ _|_ _ _||* lors- que|_ ma foy|
 A2 A2 d4- | d2 c2 B2 A2 | G4 F2 F2 | B6 A2 | G2 F3 E/D/ E2 | F4 z2 A2 | A2 A2 G4 | F2 F2 F2 F2 | %17
w: _ des gens|_ se- ra con|gnu- e, se-|ra con-|gnu- * * * *|e quant|à la vo-|stre, el- le par|
 B2 B2 A3 B | c2 d2 A2 f2 | e2 d4 c2 | d6 A2 | B2 B2 c4 | d2 d2 d2 c2 | B2 A2 G2 A2- | %24
w: trop se- ra, _|_ _ _ par|trop _ se-|ra, plus|que la lu-|ne'in- con- stan- te|te- nu- * *|
"^#" AG G4 F2 | G4 z2 G2 | B2 B2 c4 | d2 d2 d2 c2 | B2 A2 G2 A2- | AG G4 F2 | G8 |] %31
w: |e, plus|que la lu-|ne'in- con- stan- te|te- nu- * *||e.|
V:2
 D8 | E4 D4 | F6 ED | E2 E2 F2 F2 | G6 F2 | A2 F4 E2 | D2 C2 D2 D2- | D2 D2 G4 | F4 z2 F2 | %9
w: Vous|a- vez|tort, _ _|_ chas- cun vous|bla- me-|ra, _ _|_ _ _ lors|_ que ma|foy des|
 F2 F2 A4- | A2 A2 F3 E | D4 z2 D2 | F6 _E2 | _E2 D2 C4 | A,2 D2 F4- | F2 F2 E4 | D4 z2 F2- | %17
w: gens se- ra|_ con- gnu- *|e, se-|ra con-|gnu- * *|e, quant- à|_ la vo-|stre, el-|
 F2 E2 F4 | E2 D2 CA, A2- | A2 G2 A4 | F6 F2 | D2 D2 F4 | F8 | z2 F2 D2 E2 | C2 C2 D4 | B,3 C D4 | %26
w: * le par|trop se- ra _ par|_ trop se-|ra, plus|que la lu-|ne|in- con- stan-|te te- nu-|* * e,|
 z2 D2 F2 F2 | F4 F4 | z2 F2 D2 E2 | C2 C2 D4 | D8 |] %31
w: plus que la|lu- ne|in- con- stan-|te te- nu-|e.|
V:3
 B8 | c4 B4 | c2 d4 cB | c4 d4 | d2 d2 edcB | A2 d4 c2 | B2 AG A4 | G2 B4 B2 | d4 c4 | z2 d2 f4- | %10
w: Vous|a- vez|tort, _ _ _|_ chas-|cun vous bla- * * *||* * * me-|ra, lors que|ma foy|des gens|
 f2 e2 d2 c2 | B4 A2 A2 | d6 c2 | B3 A G4 | F2 A2 d2 d2 | c8 | A2 A2 A2 d2 | d2 B2 c4 | %18
w: _ se- ra con-|gnu- e, se-|ra con-|gnu- * *|e, quant à la|vo-|stre, el- le par|trop se- ra,|
 z2 f3 e d2 | c2 d2 e4 | d2 A2 B2 d2- | dc B4 A2 | B3 A F2 F2 | G2 A2 B2 c2- | cB G2 A4 | %25
w: el- * le|par trop se-|ra, plus que la|_ _ lu- *|ne'in- con- stan- te|te- nu- * *||
 G2 G2 B3 c | d2 B4 A2 | B3 A F2 F2 | G2 A2 B2 c2- | cB G2 A4 | G8 |] %31
w: e, plus que le|lu- ne'in- con-|stan- * * te|te- nu- * *||e.|
V:4
 G,8 | C,4 G,4 | F,3 G, A,4- | A,4 z2 D,2 | G,2 G,2 C,2 F,2- | F,E, D,C, B,,2 C,2 | %6
w: Vous|a- vez|tort, _ _|_ chas-|cun vous bla- *||
"^b" D,2 E,2 D,4 | G,2 G,4 G,2 | B,4 F,4 | z2 D,2 D,2 D,2 | A,4 B,2 F,2 | G,4 D,2 D,2 | B,,6 C,2 | %13
w: * * me-|ra, lors que|ma foy|des gens se-|ra con- gnu-|* e, se-|ra con-|
 _E,2 F,2 C,4 | D,6 D,2 | F,2 F,2 C,4 | D,6 D,2 | G,2 G,2 F,3 G, | A,2 B,2 F,3 G, | A,2 B,2 A,4 | %20
w: gnu- * *|e, quant|à la vo-|stre, el-|le par trop se-|ra, el- le par|trop _ se-|
 D,6 D,2 | G,2 G,2 F,4 | B,,2 B,2 B,2 A,2 | G,2 F,2 G,2 C,2 |"^#""^b" E,4 D,4 | G,4 z2 G,2 | %26
w: ra, plus|que la lu-|ne'in- con- stan- te|te- nu- * *||e, plus|
 G,2 G,2 F,4 | B,,2 B,2 B,2 A,2 | G,2 F,2 G,2 C,2 |"^b" E,4 D,4 | G,8 |] %31
w: que la lu-|ne'in- con- stan- te|te- nu- * *||e.|

